static/images/posts/illustration-posts.svg

<svg enable-background="new 0 0 142 142" viewBox="0 0 142 142" xmlns="http://www.w3.org/2000/svg"><path d="m102.6 49.6h-2.5c-.3 0-.5-.2-.5-.5s.2-.5.5-.5h2v-2c0-.3.2-.5.5-.5s.5.2.5.5v2.5c0 .3-.2.5-.5.5zm-7.9 0h-5.4c-.3 0-.5-.2-.5-.5s.2-.5.5-.5h5.4c.3 0 .5.2.5.5s-.2.5-.5.5zm-10.7 0h-5.4c-.3 0-.5-.2-.5-.5s.2-.5.5-.5h5.4c.3 0 .5.2.5.5s-.2.5-.5.5zm-10.7 0h-5.4c-.3 0-.5-.2-.5-.5s.2-.5.5-.5h5.4c.3 0 .5.2.5.5s-.2.5-.5.5zm-10.7 0h-5.4c-.3 0-.5-.2-.5-.5s.2-.5.5-.5h5.4c.3 0 .5.2.5.5s-.3.5-.5.5zm-10.8 0h-5.4c-.3 0-.5-.2-.5-.5s.2-.5.5-.5h5.4c.3 0 .5.2.5.5s-.2.5-.5.5zm-10.7 0h-2.5c-.3 0-.5-.2-.5-.5v-2.5c0-.3.2-.5.5-.5s.5.2.5.5v2h2c.3 0 .5.2.5.5s-.2.5-.5.5zm-2.5-5.9c-.3 0-.5-.2-.5-.5v-3.5c0-.3.2-.5.5-.5s.5.2.5.5v3.5c0 .2-.2.5-.5.5zm0-7c-.3 0-.5-.2-.5-.5v-2.5c0-.3.2-.5.5-.5h2.5c.3 0 .5.2.5.5s-.2.5-.5.5h-2v2c0 .3-.2.5-.5.5zm56.1-2.5h-5.4c-.3 0-.5-.2-.5-.5s.2-.5.5-.5h5.4c.3 0 .5.2.5.5s-.2.5-.5.5zm-10.7 0h-5.4c-.3 0-.5-.2-.5-.5s.2-.5.5-.5h5.4c.3 0 .5.2.5.5s-.2.5-.5.5zm-10.7 0h-5.4c-.3 0-.5-.2-.5-.5s.2-.5.5-.5h5.4c.3 0 .5.2.5.5s-.2.5-.5.5zm-10.7 0h-5.4c-.3 0-.5-.2-.5-.5s.2-.5.5-.5h5.4c.3 0 .5.2.5.5s-.3.5-.5.5zm-10.8 0h-5.4c-.3 0-.5-.2-.5-.5s.2-.5.5-.5h5.4c.3 0 .5.2.5.5s-.2.5-.5.5zm50.8 2.5c-.3 0-.5-.2-.5-.5v-2h-2c-.3 0-.5-.2-.5-.5s.2-.5.5-.5h2.5c.3 0 .5.2.5.5v2.5c0 .3-.2.5-.5.5zm0 7c-.3 0-.5-.2-.5-.5v-3.5c0-.3.2-.5.5-.5s.5.2.5.5v3.5c0 .2-.2.5-.5.5zm-42.6 69h-2.5c-.3 0-.5-.2-.5-.5s.2-.5.5-.5h2v-2c0-.3.2-.5.5-.5s.5.2.5.5v2.5c0 .3-.2.5-.5.5zm-7.9 0h-5.5c-.3 0-.5-.2-.5-.5s.2-.5.5-.5h5.5c.3 0 .5.2.5.5s-.3.5-.5.5zm-11 0h-2.5c-.3 0-.5-.2-.5-.5v-2.5c0-.3.2-.5.5-.5s.5.2.5.5v2h2c.3 0 .5.2.5.5s-.2.5-.5.5zm-2.5-7.6c-.3 0-.5-.2-.5-.5v-5.1c0-.3.2-.5.5-.5s.5.2.5.5v5.1c0 .2-.2.5-.5.5zm0-10.3c-.3 0-.5-.2-.5-.5v-5.1c0-.3.2-.5.5-.5s.5.2.5.5v5.1c0 .3-.2.5-.5.5zm0-10.3c-.3 0-.5-.2-.5-.5v-5.1c0-.3.2-.5.5-.5s.5.2.5.5v5.1c0 .3-.2.5-.5.5zm0-10.3c-.3 0-.5-.2-.5-.5v-5.1c0-.3.2-.5.5-.5s.5.2.5.5v5.1c0 .3-.2.5-.5.5zm0-10.3c-.3 0-.5-.2-.5-.5v-2.5c0-.3.2-.5.5-.5h2.5c.3 0 .5.2.5.5s-.2.5-.5.5h-2v2c0 .3-.2.5-.5.5zm13.5-2.5h-5.5c-.3 0-.5-.2-.5-.5s.2-.5.5-.5h5.5c.3 0 .5.2.5.5s-.3.5-.5.5zm7.9 2.5c-.3 0-.5-.2-.5-.5v-2h-2c-.3 0-.5-.2-.5-.5s.2-.5.5-.5h2.5c.3 0 .5.2.5.5v2.5c0 .3-.2.5-.5.5zm0 41.2c-.3 0-.5-.2-.5-.5v-5.1c0-.3.2-.5.5-.5s.5.2.5.5v5.1c0 .2-.2.5-.5.5zm0-10.3c-.3 0-.5-.2-.5-.5v-5.1c0-.3.2-.5.5-.5s.5.2.5.5v5.1c0 .3-.2.5-.5.5zm0-10.3c-.3 0-.5-.2-.5-.5v-5.1c0-.3.2-.5.5-.5s.5.2.5.5v5.1c0 .3-.2.5-.5.5zm0-10.3c-.3 0-.5-.2-.5-.5v-5.1c0-.3.2-.5.5-.5s.5.2.5.5v5.1c0 .3-.2.5-.5.5zm42.6 38.5h-2.5c-.3 0-.5-.2-.5-.5s.2-.5.5-.5h2v-2c0-.3.2-.5.5-.5s.5.2.5.5v2.5c0 .3-.2.5-.5.5zm-7.4 0h-4.9c-.3 0-.5-.2-.5-.5s.2-.5.5-.5h4.9c.3 0 .5.2.5.5s-.2.5-.5.5zm-9.8 0h-4.9c-.3 0-.5-.2-.5-.5s.2-.5.5-.5h4.9c.3 0 .5.2.5.5s-.2.5-.5.5zm-9.7 0h-2.5c-.3 0-.5-.2-.5-.5v-2.5c0-.3.2-.5.5-.5s.5.2.5.5v2h2c.3 0 .5.2.5.5s-.3.5-.5.5zm-2.5-7.6c-.3 0-.5-.2-.5-.5v-5.1c0-.3.2-.5.5-.5s.5.2.5.5v5.1c0 .2-.3.5-.5.5zm0-10.3c-.3 0-.5-.2-.5-.5v-5.1c0-.3.2-.5.5-.5s.5.2.5.5v5.1c0 .3-.3.5-.5.5zm0-10.3c-.3 0-.5-.2-.5-.5v-5.1c0-.3.2-.5.5-.5s.5.2.5.5v5.1c0 .3-.3.5-.5.5zm0-10.3c-.3 0-.5-.2-.5-.5v-5.1c0-.3.2-.5.5-.5s.5.2.5.5v5.1c0 .3-.3.5-.5.5zm0-10.3c-.3 0-.5-.2-.5-.5v-2.5c0-.3.2-.5.5-.5h2.5c.3 0 .5.2.5.5s-.2.5-.5.5h-2v2c0 .3-.3.5-.5.5zm22-2.5h-4.9c-.3 0-.5-.2-.5-.5s.2-.5.5-.5h4.9c.3 0 .5.2.5.5s-.2.5-.5.5zm-9.8 0h-4.9c-.3 0-.5-.2-.5-.5s.2-.5.5-.5h4.9c.3 0 .5.2.5.5s-.2.5-.5.5zm17.2 2.5c-.3 0-.5-.2-.5-.5v-2h-2c-.3 0-.5-.2-.5-.5s.2-.5.5-.5h2.5c.3 0 .5.2.5.5v2.5c0 .3-.2.5-.5.5zm0 41.2c-.3 0-.5-.2-.5-.5v-5.1c0-.3.2-.5.5-.5s.5.2.5.5v5.1c0 .2-.2.5-.5.5zm0-10.3c-.3 0-.5-.2-.5-.5v-5.1c0-.3.2-.5.5-.5s.5.2.5.5v5.1c0 .3-.2.5-.5.5zm0-10.3c-.3 0-.5-.2-.5-.5v-5.1c0-.3.2-.5.5-.5s.5.2.5.5v5.1c0 .3-.2.5-.5.5zm0-10.3c-.3 0-.5-.2-.5-.5v-5.1c0-.3.2-.5.5-.5s.5.2.5.5v5.1c0 .3-.2.5-.5.5zm-72.7 52.6 10.9-.3 10.9-.2 21.8-.2 43.6-.1-1.1 1 .1-110 1 1-93.1-.2.8-.8-.2 55-.3 55c0 .2-.2.4-.4.4s-.4-.2-.4-.4l-.3-55-.2-55c0-.5.4-.8.8-.8l93.1-.2c.6 0 1 .5 1 1l.1 110c0 .6-.5 1.1-1.1 1.1l-43.4-.1-21.8-.2-10.9-.2-10.9-.3c-.1 0-.2-.1-.2-.2 0-.2.1-.3.2-.3zm45.3-17.7c-.1 0-.2 0-.2-.1-.2-.1-.3-.4-.2-.7l2.5-4.3c.1-.2.4-.3.7-.2.2.1.3.4.2.7l-2.5 4.3c-.1.3-.3.3-.5.3zm5-8.6c-.1 0-.2 0-.2-.1-.2-.1-.3-.4-.2-.7l2.5-4.3c.1-.2.4-.3.7-.2.2.1.3.4.2.7l-2.5 4.3c-.2.2-.3.3-.5.3zm5-8.7c-.1 0-.2 0-.2-.1-.2-.1-.3-.4-.2-.7l2.5-4.3c.1-.2.4-.3.7-.2.2.1.3.4.2.7l-2.5 4.3c-.2.2-.3.3-.5.3zm5-8.7c-.1 0-.2 0-.2-.1-.2-.1-.3-.4-.2-.7l2.5-4.3c.1-.2.4-.3.7-.2.2.1.3.4.2.7l-2.5 4.3c-.2.2-.4.3-.5.3zm4.9-8.6c-.1 0-.2 0-.2-.1-.2-.1-.3-.4-.2-.7l2.5-4.3c.1-.2.4-.3.7-.2.2.1.3.4.2.7l-2.5 4.3c-.1.2-.3.3-.5.3zm5-8.7c-.1 0-.2 0-.2-.1-.2-.1-.3-.4-.2-.7l2.5-4.3c.1-.2.4-.3.7-.2.2.1.3.4.2.7l-2.5 4.3c-.1.2-.3.3-.5.3z" fill="#b0b5b8"/></svg>

<?xml version="1.0" encoding="utf-8"?>
<!-- Generator: Adobe Illustrator 21.0.0, SVG Export Plug-In . SVG Version: 6.00 Build 0)  -->
<!DOCTYPE svg PUBLIC "-//W3C//DTD SVG 1.1//EN" "http://www.w3.org/Graphics/SVG/1.1/DTD/svg11.dtd">
<svg version="1.1" id="Layer_1" xmlns="http://www.w3.org/2000/svg" xmlns:xlink="http://www.w3.org/1999/xlink" x="0px" y="0px"
	 viewBox="0 0 142 142" style="enable-background:new 0 0 142 142;" xml:space="preserve">
<style type="text/css">
	.st0{fill:#B0B5B8;}
</style>
<path class="st0" d="M102.6,49.6h-2.5c-0.3,0-0.5-0.2-0.5-0.5s0.2-0.5,0.5-0.5h2v-2c0-0.3,0.2-0.5,0.5-0.5s0.5,0.2,0.5,0.5v2.5
	C103.1,49.4,102.9,49.6,102.6,49.6z M94.7,49.6h-5.4c-0.3,0-0.5-0.2-0.5-0.5s0.2-0.5,0.5-0.5h5.4c0.3,0,0.5,0.2,0.5,0.5
	S95,49.6,94.7,49.6z M84,49.6h-5.4c-0.3,0-0.5-0.2-0.5-0.5s0.2-0.5,0.5-0.5H84c0.3,0,0.5,0.2,0.5,0.5S84.3,49.6,84,49.6z M73.3,49.6
	h-5.4c-0.3,0-0.5-0.2-0.5-0.5s0.2-0.5,0.5-0.5h5.4c0.3,0,0.5,0.2,0.5,0.5S73.6,49.6,73.3,49.6z M62.6,49.6h-5.4
	c-0.3,0-0.5-0.2-0.5-0.5s0.2-0.5,0.5-0.5h5.4c0.3,0,0.5,0.2,0.5,0.5S62.8,49.6,62.6,49.6z M51.8,49.6h-5.4c-0.3,0-0.5-0.2-0.5-0.5
	s0.2-0.5,0.5-0.5h5.4c0.3,0,0.5,0.2,0.5,0.5S52.1,49.6,51.8,49.6z M41.1,49.6h-2.5c-0.3,0-0.5-0.2-0.5-0.5v-2.5
	c0-0.3,0.2-0.5,0.5-0.5s0.5,0.2,0.5,0.5v2h2c0.3,0,0.5,0.2,0.5,0.5S41.4,49.6,41.1,49.6z M38.6,43.7c-0.3,0-0.5-0.2-0.5-0.5v-3.5
	c0-0.3,0.2-0.5,0.5-0.5s0.5,0.2,0.5,0.5v3.5C39.1,43.4,38.9,43.7,38.6,43.7z M38.6,36.7c-0.3,0-0.5-0.2-0.5-0.5v-2.5
	c0-0.3,0.2-0.5,0.5-0.5h2.5c0.3,0,0.5,0.2,0.5,0.5s-0.2,0.5-0.5,0.5h-2v2C39.1,36.5,38.9,36.7,38.6,36.7z M94.7,34.2h-5.4
	c-0.3,0-0.5-0.2-0.5-0.5s0.2-0.5,0.5-0.5h5.4c0.3,0,0.5,0.2,0.5,0.5S95,34.2,94.7,34.2z M84,34.2h-5.4c-0.3,0-0.5-0.2-0.5-0.5
	s0.2-0.5,0.5-0.5H84c0.3,0,0.5,0.2,0.5,0.5S84.3,34.2,84,34.2z M73.3,34.2h-5.4c-0.3,0-0.5-0.2-0.5-0.5s0.2-0.5,0.5-0.5h5.4
	c0.3,0,0.5,0.2,0.5,0.5S73.6,34.2,73.3,34.2z M62.6,34.2h-5.4c-0.3,0-0.5-0.2-0.5-0.5s0.2-0.5,0.5-0.5h5.4c0.3,0,0.5,0.2,0.5,0.5
	S62.8,34.2,62.6,34.2z M51.8,34.2h-5.4c-0.3,0-0.5-0.2-0.5-0.5s0.2-0.5,0.5-0.5h5.4c0.3,0,0.5,0.2,0.5,0.5S52.1,34.2,51.8,34.2z
	 M102.6,36.7c-0.3,0-0.5-0.2-0.5-0.5v-2h-2c-0.3,0-0.5-0.2-0.5-0.5s0.2-0.5,0.5-0.5h2.5c0.3,0,0.5,0.2,0.5,0.5v2.5
	C103.1,36.5,102.9,36.7,102.6,36.7z M102.6,43.7c-0.3,0-0.5-0.2-0.5-0.5v-3.5c0-0.3,0.2-0.5,0.5-0.5s0.5,0.2,0.5,0.5v3.5
	C103.1,43.4,102.9,43.7,102.6,43.7z M60,112.7h-2.5c-0.3,0-0.5-0.2-0.5-0.5s0.2-0.5,0.5-0.5h2v-2c0-0.3,0.2-0.5,0.5-0.5
	s0.5,0.2,0.5,0.5v2.5C60.5,112.5,60.3,112.7,60,112.7z M52.1,112.7h-5.5c-0.3,0-0.5-0.2-0.5-0.5s0.2-0.5,0.5-0.5h5.5
	c0.3,0,0.5,0.2,0.5,0.5S52.3,112.7,52.1,112.7z M41.1,112.7h-2.5c-0.3,0-0.5-0.2-0.5-0.5v-2.5c0-0.3,0.2-0.5,0.5-0.5
	s0.5,0.2,0.5,0.5v2h2c0.3,0,0.5,0.2,0.5,0.5S41.4,112.7,41.1,112.7z M38.6,105.1c-0.3,0-0.5-0.2-0.5-0.5v-5.1c0-0.3,0.2-0.5,0.5-0.5
	s0.5,0.2,0.5,0.5v5.1C39.1,104.8,38.9,105.1,38.6,105.1z M38.6,94.8c-0.3,0-0.5-0.2-0.5-0.5v-5.1c0-0.3,0.2-0.5,0.5-0.5
	s0.5,0.2,0.5,0.5v5.1C39.1,94.6,38.9,94.8,38.6,94.8z M38.6,84.5c-0.3,0-0.5-0.2-0.5-0.5v-5.1c0-0.3,0.2-0.5,0.5-0.5
	s0.5,0.2,0.5,0.5V84C39.1,84.3,38.9,84.5,38.6,84.5z M38.6,74.2c-0.3,0-0.5-0.2-0.5-0.5v-5.1c0-0.3,0.2-0.5,0.5-0.5s0.5,0.2,0.5,0.5
	v5.1C39.1,74,38.9,74.2,38.6,74.2z M38.6,63.9c-0.3,0-0.5-0.2-0.5-0.5v-2.5c0-0.3,0.2-0.5,0.5-0.5h2.5c0.3,0,0.5,0.2,0.5,0.5
	s-0.2,0.5-0.5,0.5h-2v2C39.1,63.7,38.9,63.9,38.6,63.9z M52.1,61.4h-5.5c-0.3,0-0.5-0.2-0.5-0.5s0.2-0.5,0.5-0.5h5.5
	c0.3,0,0.5,0.2,0.5,0.5S52.3,61.4,52.1,61.4z M60,63.9c-0.3,0-0.5-0.2-0.5-0.5v-2h-2c-0.3,0-0.5-0.2-0.5-0.5s0.2-0.5,0.5-0.5H60
	c0.3,0,0.5,0.2,0.5,0.5v2.5C60.5,63.7,60.3,63.9,60,63.9z M60,105.1c-0.3,0-0.5-0.2-0.5-0.5v-5.1c0-0.3,0.2-0.5,0.5-0.5
	s0.5,0.2,0.5,0.5v5.1C60.5,104.8,60.3,105.1,60,105.1z M60,94.8c-0.3,0-0.5-0.2-0.5-0.5v-5.1c0-0.3,0.2-0.5,0.5-0.5s0.5,0.2,0.5,0.5
	v5.1C60.5,94.6,60.3,94.8,60,94.8z M60,84.5c-0.3,0-0.5-0.2-0.5-0.5v-5.1c0-0.3,0.2-0.5,0.5-0.5s0.5,0.2,0.5,0.5V84
	C60.5,84.3,60.3,84.5,60,84.5z M60,74.2c-0.3,0-0.5-0.2-0.5-0.5v-5.1c0-0.3,0.2-0.5,0.5-0.5s0.5,0.2,0.5,0.5v5.1
	C60.5,74,60.3,74.2,60,74.2z M102.6,112.7h-2.5c-0.3,0-0.5-0.2-0.5-0.5s0.2-0.5,0.5-0.5h2v-2c0-0.3,0.2-0.5,0.5-0.5s0.5,0.2,0.5,0.5
	v2.5C103.1,112.5,102.9,112.7,102.6,112.7z M95.2,112.7h-4.9c-0.3,0-0.5-0.2-0.5-0.5s0.2-0.5,0.5-0.5h4.9c0.3,0,0.5,0.2,0.5,0.5
	S95.5,112.7,95.2,112.7z M85.4,112.7h-4.9c-0.3,0-0.5-0.2-0.5-0.5s0.2-0.5,0.5-0.5h4.9c0.3,0,0.5,0.2,0.5,0.5S85.7,112.7,85.4,112.7
	z M75.7,112.7h-2.5c-0.3,0-0.5-0.2-0.5-0.5v-2.5c0-0.3,0.2-0.5,0.5-0.5s0.5,0.2,0.5,0.5v2h2c0.3,0,0.5,0.2,0.5,0.5
	S75.9,112.7,75.7,112.7z M73.2,105.1c-0.3,0-0.5-0.2-0.5-0.5v-5.1c0-0.3,0.2-0.5,0.5-0.5s0.5,0.2,0.5,0.5v5.1
	C73.7,104.8,73.4,105.1,73.2,105.1z M73.2,94.8c-0.3,0-0.5-0.2-0.5-0.5v-5.1c0-0.3,0.2-0.5,0.5-0.5s0.5,0.2,0.5,0.5v5.1
	C73.7,94.6,73.4,94.8,73.2,94.8z M73.2,84.5c-0.3,0-0.5-0.2-0.5-0.5v-5.1c0-0.3,0.2-0.5,0.5-0.5s0.5,0.2,0.5,0.5V84
	C73.7,84.3,73.4,84.5,73.2,84.5z M73.2,74.2c-0.3,0-0.5-0.2-0.5-0.5v-5.1c0-0.3,0.2-0.5,0.5-0.5s0.5,0.2,0.5,0.5v5.1
	C73.7,74,73.4,74.2,73.2,74.2z M73.2,63.9c-0.3,0-0.5-0.2-0.5-0.5v-2.5c0-0.3,0.2-0.5,0.5-0.5h2.5c0.3,0,0.5,0.2,0.5,0.5
	s-0.2,0.5-0.5,0.5h-2v2C73.7,63.7,73.4,63.9,73.2,63.9z M95.2,61.4h-4.9c-0.3,0-0.5-0.2-0.5-0.5s0.2-0.5,0.5-0.5h4.9
	c0.3,0,0.5,0.2,0.5,0.5S95.5,61.4,95.2,61.4z M85.4,61.4h-4.9c-0.3,0-0.5-0.2-0.5-0.5s0.2-0.5,0.5-0.5h4.9c0.3,0,0.5,0.2,0.5,0.5
	S85.7,61.4,85.4,61.4z M102.6,63.9c-0.3,0-0.5-0.2-0.5-0.5v-2h-2c-0.3,0-0.5-0.2-0.5-0.5s0.2-0.5,0.5-0.5h2.5c0.3,0,0.5,0.2,0.5,0.5
	v2.5C103.1,63.7,102.9,63.9,102.6,63.9z M102.6,105.1c-0.3,0-0.5-0.2-0.5-0.5v-5.1c0-0.3,0.2-0.5,0.5-0.5s0.5,0.2,0.5,0.5v5.1
	C103.1,104.8,102.9,105.1,102.6,105.1z M102.6,94.8c-0.3,0-0.5-0.2-0.5-0.5v-5.1c0-0.3,0.2-0.5,0.5-0.5s0.5,0.2,0.5,0.5v5.1
	C103.1,94.6,102.9,94.8,102.6,94.8z M102.6,84.5c-0.3,0-0.5-0.2-0.5-0.5v-5.1c0-0.3,0.2-0.5,0.5-0.5s0.5,0.2,0.5,0.5V84
	C103.1,84.3,102.9,84.5,102.6,84.5z M102.6,74.2c-0.3,0-0.5-0.2-0.5-0.5v-5.1c0-0.3,0.2-0.5,0.5-0.5s0.5,0.2,0.5,0.5v5.1
	C103.1,74,102.9,74.2,102.6,74.2z M29.9,126.8l10.9-0.3l10.9-0.2l21.8-0.2l43.6-0.1l-1.1,1l0.1-110l1,1L24,17.8l0.8-0.8l-0.2,55
	l-0.3,55c0,0.2-0.2,0.4-0.4,0.4s-0.4-0.2-0.4-0.4l-0.3-55L23,17c0-0.5,0.4-0.8,0.8-0.8l93.1-0.2c0.6,0,1,0.5,1,1l0.1,110
	c0,0.6-0.5,1.1-1.1,1.1L73.5,128l-21.8-0.2l-10.9-0.2l-10.9-0.3c-0.1,0-0.2-0.1-0.2-0.2C29.7,126.9,29.8,126.8,29.9,126.8z
	 M75.2,109.1c-0.1,0-0.2,0-0.2-0.1c-0.2-0.1-0.3-0.4-0.2-0.7l2.5-4.3c0.1-0.2,0.4-0.3,0.7-0.2c0.2,0.1,0.3,0.4,0.2,0.7l-2.5,4.3
	C75.6,109.1,75.4,109.1,75.2,109.1z M80.2,100.5c-0.1,0-0.2,0-0.2-0.1c-0.2-0.1-0.3-0.4-0.2-0.7l2.5-4.3c0.1-0.2,0.4-0.3,0.7-0.2
	c0.2,0.1,0.3,0.4,0.2,0.7l-2.5,4.3C80.5,100.4,80.4,100.5,80.2,100.5z M85.2,91.8c-0.1,0-0.2,0-0.2-0.1c-0.2-0.1-0.3-0.4-0.2-0.7
	l2.5-4.3c0.1-0.2,0.4-0.3,0.7-0.2c0.2,0.1,0.3,0.4,0.2,0.7l-2.5,4.3C85.5,91.7,85.4,91.8,85.2,91.8z M90.2,83.1
	c-0.1,0-0.2,0-0.2-0.1c-0.2-0.1-0.3-0.4-0.2-0.7l2.5-4.3c0.1-0.2,0.4-0.3,0.7-0.2c0.2,0.1,0.3,0.4,0.2,0.7l-2.5,4.3
	C90.5,83,90.3,83.1,90.2,83.1z M95.1,74.5c-0.1,0-0.2,0-0.2-0.1c-0.2-0.1-0.3-0.4-0.2-0.7l2.5-4.3c0.1-0.2,0.4-0.3,0.7-0.2
	c0.2,0.1,0.3,0.4,0.2,0.7l-2.5,4.3C95.5,74.4,95.3,74.5,95.1,74.5z M100.1,65.8c-0.1,0-0.2,0-0.2-0.1c-0.2-0.1-0.3-0.4-0.2-0.7
	l2.5-4.3c0.1-0.2,0.4-0.3,0.7-0.2c0.2,0.1,0.3,0.4,0.2,0.7l-2.5,4.3C100.5,65.7,100.3,65.8,100.1,65.8z"/>
</svg>
